X:1
T:On Let Us Go
T:On Let Us Go
T:John Robson Sweney
T:Frances Jane (Fanny) Crosby, 1886
T:Public Domain Courtesy of the Cyber Hymnal™
C:John Robson Sweney
Z:Public Domain
Z:Courtesy of the Cyber Hymnal™
%%score ( 1 2 ) ( 3 4 )
L:1/8
Q:1/4=105
M:4/4
K:Bb
V:1 treble 
V:2 treble 
V:3 bass 
V:4 bass 
V:1
 [DF]2 [DF]>[DF] [DB]2 [FB]>[FA] | (3[EG][EG][FA] [GB]>[EG] [DF]4 | %2
w: 1.~On let us go where the|val- ley of E- den fair|
w: 2.~On let us go where the|beau- ti- ful realms a- bove|
w: 3.~On let us go where the|wear- y and toil op- pressed|
w: 4.~On let us go where the|lov- ing and loved shall meet,|
 [DF]2 [DB]>[Ec] [Fd]2 [Fc]>[FB] | ([Fc]3 d) [Fc]4 | [DF]2 [DF]>[DF] [DB]2 [FB]>[FA] | %5
w: Blooms on the bank of the|ri- * ver;|On where the fields, in the|
w: Ring with the time hon- ored|stor- * y;|Saved through the might of a|
w: Soon shall for- get ev- ery|sor- * row;|On where the soul to a|
w: Meet on the bank of the|ri- * ver;|There shall they sing at the|
 (3[EG][EG][FA] [GB]>[EG] [DF]4 | [DF]2 [DB]>[Ec] [Fd]2 [DB]>[Fd] | [Ec]4 [DB]4 || %8
w: beau- ti- ful robe they wear,|Wave in the sun- light for-|e- ver.|
w: bless- èd Re- deem- er’s love,|His be the praise and the|glor- y.|
w: hap- py and gold- en rest|Wakes in e- ter- ni- ty’s|mor- row.|
w: bless- èd Re- deem- er’s feet|Songs that shall e- cho for-|e- ver.|
"^Refrain" d4 [Ff]2 [DB]>[Ec] | (3([Fd]FFF>F F2) z2 | d4 [Ff]2 [FB]>([FB] | (3FFFF>F F2) z2 | %12
w: ||||
w: On let us go,|on * * * * *|let us go, on||
w: ||||
w: ||||
 d4 [Ff]2 [FB]>([FA] | (3[EG]EEE>E [Ge]4) | [Fd]2 [DB]>[Fd] [Fc]>F [=EG]>[_EG] | [Ec]4 [DB]4 |] %16
w: ||||
w: let us go, On||where the hap- py ones are call-|ing. *|
w: ||||
w: ||||
V:2
 x8 | x8 | x8 | x3 d x4 | x8 | x8 | x8 | x8 || d4 x4 | x8 | x8 | x8 | x8 | x8 | x8 | x8 |] %16
V:3
 [B,,B,]2 [B,,B,]>[B,,B,] [B,,F,]2 [D,B,]>[D,B,] | (3[E,B,][E,B,][E,B,] [E,B,]>[E,B,] [B,,B,]4 | %2
 [B,,B,]2 [B,,F,]>[B,,F,] B,2 [A,C]>[G,C] | ([F,A,]3 B,) [F,A,]4 | %4
 B,2 [B,,B,]>[B,,B,] [B,,F,]2 [D,B,]>[D,B,] | (3[E,B,][E,B,][E,B,] [E,B,]>[E,B,] [B,,B,]4 | %6
 [B,,B,]2 [B,,F,]>[B,,F,] [B,,B,]2 [B,,F,]>[B,,B,] | [F,A,]4 [B,,F,]4 || %8
 ([B,,B,]2 [B,,B,]2) [B,,D]2 [B,,F,]>([B,,F,] | %9
 (3[B,,B,][B,,B,][B,,B,][B,,B,]>[B,,B,] [B,,B,]2) z2 | ([F,A,]2 [F,A,]2) [F,A,]2 F,>(F, | %11
 (3[F,A,][F,A,][F,A,][F,A,]>[F,A,] [F,A,]2) z2 | [B,,B,]2 [B,,B,]2 [B,,D]2 [D,B,]>([D,B,] | %13
 (3[E,B,][E,B,][E,B,][E,B,]>[E,B,] [E,B,]4) | [F,B,]2 [F,B,]>[F,B,] [F,A,]>[F,A,] [F,B,]>[F,C] | %15
 [F,A,]4 [B,,F,]4 |] %16
V:4
 x8 | x8 | x8 | x3 B, x4 | x8 | x8 | x8 | x8 || x8 | x8 | x8 | x8 | x8 | x8 | x8 | x8 |] %16

